novelwriter/assets/icons/typicons_dark/mixed_search-replace.svg

<?xml version="1.0" encoding="UTF-8" standalone="no"?>
<svg
   xmlns:dc="http://purl.org/dc/elements/1.1/"
   xmlns:cc="http://creativecommons.org/ns#"
   xmlns:rdf="http://www.w3.org/1999/02/22-rdf-syntax-ns#"
   xmlns:svg="http://www.w3.org/2000/svg"
   xmlns="http://www.w3.org/2000/svg"
   version="1.2"
   width="24"
   height="24"
   viewBox="0 0 24 24"
   id="svg873">
  <metadata
     id="metadata879">
    <rdf:RDF>
      <cc:Work
         rdf:about="">
        <dc:format>image/svg+xml</dc:format>
        <dc:type
           rdf:resource="http://purl.org/dc/dcmitype/StillImage" />
        <dc:title></dc:title>
      </cc:Work>
    </rdf:RDF>
  </metadata>
  <defs
     id="defs877" />
  <path
     id="path871"
     style="display:inline;fill:#6699cc;fill-opacity:1;stroke-width:1.19007"
     d="m 10.330622,1.9999997 c -4.5924663,0 -8.3306193,3.738153 -8.3306193,8.3306193 0,1.391929 0.3467825,2.702587 0.9532665,3.857242 0.084308,-0.108411 0.1590865,-0.228838 0.2534294,-0.323181 L 4.7482003,12.323178 C 4.5237338,11.697056 4.378519,11.032991 4.3785189,10.330619 c 0,-3.2810129 2.6710902,-5.949778 5.9521031,-5.949778 0.702303,0 1.36649,0.1429324 1.992559,0.3673563 L 14.141363,2.9300158 C 12.997884,2.3384803 11.704084,1.9999997 10.330622,1.9999997 Z m 5.635898,3.4852355 -0.60451,0.6045104 2.545919,2.5482442 0.460357,-0.4626829 C 18.332278,8.0413114 18.299136,7.9066594 18.256684,7.7754 Z m 0.292955,4.4245521 c 0.0083,0.1189097 0.01733,0.2373427 0.01861,0.3580557 l 0.169728,-0.169728 z m 2.059986,2.6993717 -5.710299,5.710299 c 0.105352,-0.03032 0.217183,-0.04484 0.320855,-0.07906 l 0.892816,0.89049 1.799581,1.797261 0.07208,0.07208 0.07672,0.06743 C 16.486443,21.66984 17.375591,22 18.275281,22 c 2.054056,0 3.724716,-1.671795 3.724716,-3.72704 0,-0.999657 -0.390465,-1.936781 -1.099745,-2.638921 l -1.129969,-1.174145 -0.639387,-0.639386 -0.890489,-0.892815 c 0.03403,-0.103138 0.04885,-0.213757 0.07906,-0.318531 z m -11.7600542,2.28784 -0.4929085,0.492908 0.5417343,0.541734 0.57196,-0.571959 C 6.960254,15.221393 6.7588057,15.062002 6.5594068,14.896999 Z m 2.7179722,1.285747 -1.209021,1.209021 0.5417345,0.541734 1.6577535,-1.655429 c -0.3372847,-0.0036 -0.668706,-0.03764 -0.990467,-0.09533 z" />
  <path
     d="m 15.96652,2.4766329 c -0.396657,0 -0.792437,0.1507259 -1.095095,0.4533829 L 3.57173,14.229712 c -0.3026571,0.302657 -0.5759103,0.751428 -0.7742385,1.227621 -0.1983282,0.47826 -0.3208556,0.99063 -0.3208556,1.418274 v 4.647756 h 4.6477558 c 0.427645,0 0.9376894,-0.122526 1.4159495,-0.320855 0.4782601,-0.198328 0.9272894,-0.471583 1.2299463,-0.774239 L 21.069984,9.1285734 c 0.302656,-0.302657 0.453382,-0.7017958 0.453382,-1.0974191 0,-0.3966562 -0.150726,-0.7924369 -0.453382,-1.0950939 L 17.063939,2.9300158 C 16.761281,2.6273588 16.362143,2.4766329 15.96652,2.4766329 Z m 0,2.2785396 3.275981,3.2759818 -1.334572,1.3368983 -3.275982,-3.2759819 z M 13.901884,6.8221334 15.173682,8.0939305 6.6082326,16.661704 5.3364357,15.387582 Z m 2.004185,2.0041848 1.271796,1.2717968 -8.5654475,8.565448 -1.2741221,-1.271796 z M 4.7063497,16.250176 c 0.010333,-0.02065 3.0644031,3.034179 3.0644031,3.034179 C 7.43814,19.422771 7.2039295,19.456408 7.1243917,19.456408 H 5.5759147 L 4.5435968,18.424084 v -1.548477 c 0,-0.07953 0.033633,-0.315548 0.1627529,-0.625436 z"
     style="display:inline;fill:#99cc99;fill-opacity:1;stroke-width:1.19007"
     id="path15590" />
  <path
     id="rect19553"
     d="m 2.4766359,18.937425 v 2.585938 h 2.5605469 z"
     style="display:inline;opacity:0.95;fill:#0a0a0a;fill-opacity:1;stroke:none;stroke-width:1.88249397;stroke-miterlimit:4;stroke-dasharray:none;stroke-opacity:1" />
</svg>

<?xml version="1.0" encoding="UTF-8"?>
<svg width="24" height="24" version="1.2" viewBox="0 0 24 24" xmlns="http://www.w3.org/2000/svg">
 <path d="m10.331 2c-4.5925 0-8.3306 3.7382-8.3306 8.3306 0 1.3919 0.34678 2.7026 0.95327 3.8572 0.084308-0.10841 0.15909-0.22884 0.25343-0.32318l1.5415-1.5415c-0.22447-0.62612-0.36968-1.2902-0.36968-1.9926 0-3.281 2.6711-5.9498 5.9521-5.9498 0.7023 0 1.3665 0.14293 1.9926 0.36736l1.8182-1.8182c-1.1435-0.59154-2.4373-0.93002-3.8107-0.93002zm5.6359 3.4852-0.60451 0.60451 2.5459 2.5482 0.46036-0.46268c-0.036008-0.134-0.06915-0.26865-0.1116-0.39991zm0.29296 4.4246c0.0083 0.11891 0.01733 0.23734 0.01861 0.35806l0.16973-0.16973zm2.06 2.6994-5.7103 5.7103c0.10535-0.03032 0.21718-0.04484 0.32086-0.07906l0.89282 0.89049 1.7996 1.7973 0.07208 0.07208 0.07672 0.06743c0.71523 0.60218 1.6044 0.93234 2.5041 0.93234 2.0541 0 3.7247-1.6718 3.7247-3.727 0-0.99966-0.39046-1.9368-1.0997-2.6389l-1.13-1.1741-0.63939-0.63939-0.89049-0.89282c0.03403-0.10314 0.04885-0.21376 0.07906-0.31853zm-11.76 2.2878-0.49291 0.49291 0.54173 0.54173 0.57196-0.57196c-0.21994-0.13829-0.42139-0.29768-0.62079-0.46268zm2.718 1.2857-1.209 1.209 0.54173 0.54173 1.6578-1.6554c-0.33728-0.0036-0.66871-0.03764-0.99047-0.09533z" fill="#69c" stroke-width="1.1901"/>
 <path d="m15.967 2.4766c-0.39666 0-0.79244 0.15073-1.0951 0.45338l-11.3 11.3c-0.30266 0.30266-0.57591 0.75143-0.77424 1.2276-0.19833 0.47826-0.32086 0.99063-0.32086 1.4183v4.6478h4.6478c0.42764 0 0.93769-0.12253 1.4159-0.32086 0.47826-0.19833 0.92729-0.47158 1.2299-0.77424l11.3-11.3c0.30266-0.30266 0.45338-0.7018 0.45338-1.0974 0-0.39666-0.15073-0.79244-0.45338-1.0951l-4.006-4.006c-0.30266-0.30266-0.7018-0.45338-1.0974-0.45338zm0 2.2785 3.276 3.276-1.3346 1.3369-3.276-3.276zm-2.0646 2.067 1.2718 1.2718-8.5654 8.5678-1.2718-1.2741zm2.0042 2.0042 1.2718 1.2718-8.5654 8.5654-1.2741-1.2718zm-11.2 7.4239c0.010333-0.02065 3.0644 3.0342 3.0644 3.0342-0.33261 0.13842-0.56682 0.17205-0.64636 0.17205h-1.5485l-1.0323-1.0323v-1.5485c0-0.07953 0.033633-0.31555 0.16275-0.62544z" fill="#9c9" stroke-width="1.1901"/>
 <path d="m2.4766 18.937v2.5859h2.5605z" fill="#0a0a0a" opacity=".95"/>
</svg>
